; generated by PrusaSlicer 2.3.3+win64 on 2021-11-03 at 09:37:47 UTC

; 

; external perimeters extrusion width = 0.45mm
; perimeters extrusion width = 0.45mm
; infill extrusion width = 0.45mm
; solid infill extrusion width = 0.45mm
; top infill extrusion width = 0.40mm
; first layer extrusion width = 0.42mm

M73 P0 R21
M201 X9000 Y9000 Z500 E10000 ; sets maximum accelerations, mm/sec^2
M203 X500 Y500 Z12 E120 ; sets maximum feedrates, mm/sec
M204 P2000 R1500 T2000 ; sets acceleration (P, T) and retract acceleration (R), mm/sec^2
M205 X10.00 Y10.00 Z0.20 E4.50 ; sets the jerk limits, mm/sec
M205 S0 T0 ; sets the minimum extruding and travel feed rate, mm/sec
M107
;TYPE:Custom
M862.3 P "MK2.5S" ; printer model check
M862.1 P0.4 ; nozzle diameter check
M115 U3.10.0 ; tell printer latest fw version
G90 ; use absolute coordinates
M83  ; extruder relative mode
M104 S215 ; set extruder temp
M140 S60 ; set bed temp
M190 S60 ; wait for bed temp
M109 S215 ; wait for extruder temp
G28 W ; home all without mesh bed level
G80 ; mesh bed leveling
G1 Y-3.0 F1000.0 ; go outside print area
G92 E0.0
G1 X60.0 E9.0 F1000.0 ; intro line
G1 X100.0 E12.5 F1000.0 ; intro line
G92 E0.0
G21 ; set units to millimeters
G90 ; use absolute coordinates
M83 ; use relative distances for extrusion
M900 K0.05 ; Filament gcode LA 1.5
M900 K30 ; Filament gcode LA 1.0
;LAYER_CHANGE
;Z:0.2
;HEIGHT:0.2
;BEFORE_LAYER_CHANGE
G92 E0.0
;0.2


G1 E-0.80000 F2100.000
G1 Z0.400 F10800.000
;AFTER_LAYER_CHANGE
;0.2
G1 X111.526 Y95.518
G1 Z0.200
G1 E0.80000 F2100.000
M204 S1000
;TYPE:Skirt
;WIDTH:0.42
G1 F1200.000
G1 X111.930 Y94.762 E0.02689
G1 X112.432 Y94.252 E0.02243
G1 X113.049 Y93.889 E0.02243
G1 X124.771 Y89.300 E0.39472
G1 X125.373 Y89.229 E0.01899
G1 X135.897 Y89.229 E0.32998
G1 X136.906 Y89.422 E0.03221
G1 X137.771 Y89.969 E0.03208
G1 X138.377 Y90.793 E0.03208
G1 X138.640 Y91.786 E0.03221
G1 X138.647 Y118.070 E0.82411
G1 X138.495 Y118.918 E0.02701
G1 X138.089 Y119.678 E0.02701
G1 X137.661 Y120.128 E0.01950
G1 X137.145 Y120.469 E0.01937
G1 X136.563 Y120.688 E0.01950
G1 X135.951 Y120.770 E0.01937
G1 X114.061 Y120.770 E0.68635
G1 X113.221 Y120.618 E0.02676
G1 X112.465 Y120.213 E0.02689
G1 X112.015 Y119.784 E0.01950
G1 X111.674 Y119.269 E0.01937
G1 X111.455 Y118.687 E0.01950
G1 X111.373 Y118.075 E0.01937
G1 X111.373 Y96.358 E0.68091
G1 X111.515 Y95.577 E0.02488
G1 X111.882 Y95.644 F10800.000
G1 F1200.000
G1 X112.240 Y94.978 E0.02370
G1 X112.674 Y94.542 E0.01929
G1 X113.206 Y94.232 E0.01929
G1 X124.864 Y89.665 E0.39257
M73 P1 R21
G1 X125.377 Y89.606 E0.01621
G1 X135.897 Y89.606 E0.32982
G1 X136.771 Y89.774 E0.02790
G1 X137.521 Y90.252 E0.02790
G1 X138.044 Y90.972 E0.02790
G1 X138.265 Y91.834 E0.02790
G1 X138.270 Y118.058 E0.82225
G1 X138.138 Y118.798 E0.02355
G1 X137.780 Y119.462 E0.02367
G1 X137.411 Y119.846 E0.01668
G1 X136.966 Y120.138 E0.01668
G1 X136.467 Y120.323 E0.01669
G1 X135.936 Y120.393 E0.01680
G1 X114.077 Y120.393 E0.68537
G1 X113.342 Y120.260 E0.02343
G1 X112.681 Y119.903 E0.02355
G1 X112.297 Y119.535 E0.01668
G1 X112.005 Y119.090 E0.01668
G1 X111.820 Y118.591 E0.01669
G1 X111.750 Y118.060 E0.01680
G1 X111.750 Y96.374 E0.67993
G1 X111.872 Y95.703 E0.02139
; printing object Body131.stl id:0 copy 0
;WIPE_START
G1 F8640.000
G1 X112.240 Y94.978 E-0.18772
G1 X112.674 Y94.542 E-0.14208
G1 X113.206 Y94.232 E-0.14208
G1 X114.368 Y93.777 E-0.28811
;WIPE_END
G1 E-0.04000 F2100.000
G1 Z0.600 F10800.000
G1 X120.749 Y103.203
G1 Z0.200
G1 E0.80000 F2100.000
;TYPE:Perimeter
G1 F1200.000
G1 X121.090 Y102.857 E0.01524
G1 X121.612 Y102.430 E0.02114
G1 X122.201 Y102.058 E0.02184
G1 X122.531 Y101.889 E0.01163
G1 X123.169 Y101.633 E0.02157
G1 X123.525 Y101.527 E0.01163
G1 X124.200 Y101.391 E0.02160
G1 X124.591 Y101.351 E0.01231
G1 X125.265 Y101.342 E0.02114
G1 X125.958 Y101.416 E0.02184
G1 X126.321 Y101.489 E0.01163
G1 X126.980 Y101.685 E0.02157
G1 X127.325 Y101.823 E0.01163
G1 X127.945 Y102.141 E0.02185
G1 X128.522 Y102.531 E0.02185
G1 X128.809 Y102.766 E0.01163
G1 X129.305 Y103.255 E0.02185
G1 X129.739 Y103.801 E0.02185
G1 X129.942 Y104.111 E0.01163
G1 X130.269 Y104.726 E0.02185
G1 X130.518 Y105.377 E0.02185
G1 X130.618 Y105.734 E0.01163
G1 X130.744 Y106.410 E0.02157
G1 X130.777 Y106.780 E0.01163
G1 X130.777 Y107.468 E0.02157
G1 X130.744 Y107.828 E0.01135
G1 X130.689 Y108.186 E0.01135
G1 X130.521 Y108.862 E0.02185
G1 X130.269 Y109.521 E0.02213
G1 X129.942 Y110.136 E0.02185
G1 X129.739 Y110.447 E0.01163
G1 X129.311 Y110.985 E0.02157
G1 X129.055 Y111.254 E0.01163
G1 X128.530 Y111.711 E0.02185
G1 X127.952 Y112.102 E0.02185
G1 X127.627 Y112.281 E0.01163
G1 X126.997 Y112.556 E0.02157
G1 X126.645 Y112.673 E0.01163
G1 X125.966 Y112.831 E0.02185
G1 X125.265 Y112.906 E0.02213
G1 X124.568 Y112.895 E0.02185
G1 X124.199 Y112.856 E0.01163
G1 X123.524 Y112.720 E0.02160
G1 X123.148 Y112.606 E0.01231
G1 X122.522 Y112.355 E0.02114
G1 X121.912 Y112.019 E0.02184
G1 X121.605 Y111.811 E0.01163
G1 X121.073 Y111.375 E0.02157
G1 X120.809 Y111.115 E0.01163
G1 X120.359 Y110.583 E0.02185
G1 X119.973 Y109.992 E0.02213
G1 X119.665 Y109.367 E0.02185
G1 X119.532 Y109.021 E0.01163
G1 X119.345 Y108.358 E0.02160
G1 X119.275 Y107.971 E0.01231
G1 X119.215 Y107.308 E0.02090
G1 X119.217 Y106.916 E0.01230
G1 X119.279 Y106.244 E0.02114
G1 X119.427 Y105.562 E0.02187
G1 X119.546 Y105.188 E0.01231
G1 X119.807 Y104.567 E0.02114
G1 X120.152 Y103.962 E0.02184
G1 X120.365 Y103.658 E0.01163
G1 X120.710 Y103.249 E0.01678
G1 X120.998 Y103.492 F10800.000
;TYPE:External perimeter
G1 F1200.000
G1 X121.342 Y103.138 E0.01546
G1 X121.833 Y102.737 E0.01990
G1 X122.388 Y102.386 E0.02058
G1 X122.687 Y102.233 E0.01055
G1 X123.294 Y101.990 E0.02048
G1 X123.616 Y101.893 E0.01055
G1 X124.257 Y101.765 E0.02050
G1 X124.613 Y101.728 E0.01122
G1 X125.248 Y101.719 E0.01990
G1 X125.900 Y101.789 E0.02058
G1 X126.230 Y101.855 E0.01055
G1 X126.856 Y102.042 E0.02048
G1 X127.168 Y102.167 E0.01055
G1 X127.753 Y102.466 E0.02058
G1 X128.296 Y102.834 E0.02058
G1 X128.557 Y103.047 E0.01055
G1 X129.024 Y103.507 E0.02058
G1 X129.433 Y104.022 E0.02058
G1 X129.617 Y104.303 E0.01055
G1 X129.925 Y104.883 E0.02058
G1 X130.160 Y105.496 E0.02058
G1 X130.251 Y105.820 E0.01055
G1 X130.370 Y106.462 E0.02048
G1 X130.400 Y106.797 E0.01055
G1 X130.400 Y107.450 E0.02048
G1 X130.370 Y107.782 E0.01045
G1 X130.319 Y108.111 E0.01045
G1 X130.161 Y108.749 E0.02058
G1 X129.925 Y109.364 E0.02068
G1 X129.617 Y109.944 E0.02058
G1 X129.433 Y110.226 E0.01055
G1 X129.026 Y110.737 E0.02048
G1 X128.794 Y110.981 E0.01055
G1 X128.299 Y111.412 E0.02058
G1 X127.755 Y111.780 E0.02058
G1 X127.461 Y111.942 E0.01055
G1 X126.862 Y112.203 E0.02048
G1 X126.543 Y112.309 E0.01055
G1 X125.903 Y112.458 E0.02058
G1 X125.247 Y112.529 E0.02068
G1 X124.591 Y112.519 E0.02058
G1 X124.257 Y112.483 E0.01055
G1 X123.616 Y112.354 E0.02050
G1 X123.273 Y112.250 E0.01122
G1 X122.684 Y112.014 E0.01990
G1 X122.109 Y111.697 E0.02058
G1 X121.831 Y111.509 E0.01055
G1 X121.325 Y111.095 E0.02048
G1 X121.086 Y110.859 E0.01055
G1 X120.662 Y110.357 E0.02058
G1 X120.301 Y109.805 E0.02068
G1 X120.011 Y109.216 E0.02058
G1 X119.890 Y108.902 E0.01055
G1 X119.713 Y108.273 E0.02050
G1 X119.649 Y107.921 E0.01122
G1 X119.592 Y107.291 E0.01981
G1 X119.594 Y106.934 E0.01122
G1 X119.652 Y106.302 E0.01990
G1 X119.791 Y105.660 E0.02059
G1 X119.900 Y105.319 E0.01122
G1 X120.146 Y104.734 E0.01990
G1 X120.471 Y104.164 E0.02058
G1 X120.664 Y103.888 E0.01055
G1 X120.960 Y103.538 E0.01436
G1 X120.876 Y103.112 F10800.000
;WIPE_START
G1 F8640.000
G1 X121.342 Y103.138 E-0.12770
G1 X121.833 Y102.737 E-0.14656
G1 X122.388 Y102.386 E-0.15156
G1 X122.687 Y102.233 E-0.07767
G1 X123.294 Y101.990 E-0.15084
G1 X123.616 Y101.893 E-0.07767
G1 X123.735 Y101.870 E-0.02799
;WIPE_END
G1 E-0.04000 F2100.000
G1 Z0.600 F10800.000
G1 X126.185 Y97.211
G1 Z0.200
G1 E0.80000 F2100.000
;TYPE:Perimeter
G1 F1200.000
G1 X126.185 Y92.913 E0.13474
G1 X134.963 Y92.913 E0.27523
G1 X134.963 Y117.087 E0.75794
G1 X115.345 Y117.087 E0.61510
G1 X115.346 Y97.211 E0.62319
M73 P2 R21
G1 X126.125 Y97.211 E0.33798
G1 X125.808 Y96.834 F10800.000
;TYPE:External perimeter
G1 F1200.000
G1 X125.808 Y92.536 E0.13474
G1 X135.340 Y92.536 E0.29887
G1 X135.340 Y117.464 E0.78158
G1 X114.968 Y117.464 E0.63874
G1 X114.969 Y96.834 E0.64684
G1 X125.748 Y96.834 E0.33797
G1 X126.182 Y96.692 F10800.000
;WIPE_START
G1 F8640.000
G1 X125.794 Y93.543 E-0.76000
;WIPE_END
G1 E-0.04000 F2100.000
G1 Z0.600 F10800.000
G1 X134.083 Y93.026
G1 Z0.200
G1 E0.80000 F2100.000
;TYPE:Solid infill
;WIDTH:0.42191
G1 F1200.000
G1 X134.680 Y93.623 E0.02659
G1 X134.680 Y94.159 E0.01689
G1 X133.717 Y93.196 E0.04291
G1 X133.181 Y93.196 E0.01689
G1 X134.680 Y94.695 E0.06680
G1 X134.680 Y95.231 E0.01689
G1 X132.645 Y93.196 E0.09069
G1 X132.109 Y93.196 E0.01689
G1 X134.680 Y95.767 E0.11457
G1 X134.680 Y96.303 E0.01689
G1 X131.573 Y93.196 E0.13846
G1 X131.037 Y93.196 E0.01689
G1 X134.680 Y96.839 E0.16235
G1 X134.680 Y97.375 E0.01689
G1 X130.501 Y93.196 E0.18623
G1 X129.965 Y93.196 E0.01689
G1 X134.680 Y97.911 E0.21012
G1 X134.680 Y98.447 E0.01689
G1 X129.429 Y93.196 E0.23400
G1 X128.893 Y93.196 E0.01689
G1 X134.680 Y98.983 E0.25789
G1 X134.680 Y99.519 E0.01689
G1 X128.357 Y93.196 E0.28178
G1 X127.821 Y93.196 E0.01689
G1 X134.680 Y100.055 E0.30566
G1 X134.680 Y100.591 E0.01689
G1 X127.286 Y93.196 E0.32955
G1 X126.750 Y93.196 E0.01689
G1 X134.680 Y101.127 E0.35344
G1 X134.680 Y101.663 E0.01689
G1 X126.468 Y93.450 E0.36599
G1 X126.468 Y93.986 E0.01689
G1 X134.680 Y102.199 E0.36599
G1 X134.680 Y102.735 E0.01689
G1 X126.468 Y94.522 E0.36599
G1 X126.468 Y95.058 E0.01689
G1 X134.680 Y103.271 E0.36599
M73 P3 R21
G1 X134.680 Y103.807 E0.01689
G1 X126.468 Y95.594 E0.36599
G1 X126.468 Y96.130 E0.01689
G1 X134.680 Y104.343 E0.36599
G1 X134.680 Y104.879 E0.01689
G1 X126.468 Y96.666 E0.36599
G1 X126.468 Y97.202 E0.01689
G1 X134.680 Y105.415 E0.36599
G1 X134.680 Y105.950 E0.01689
G1 X126.223 Y97.494 E0.37689
G1 X125.687 Y97.494 E0.01689
G1 X134.680 Y106.486 E0.40078
G1 X134.680 Y107.022 E0.01689
G1 X125.151 Y97.494 E0.42466
G1 X124.615 Y97.494 E0.01689
G1 X134.680 Y107.558 E0.44855
G1 X134.680 Y108.094 E0.01689
G1 X124.079 Y97.494 E0.47244
G1 X123.543 Y97.494 E0.01689
G1 X127.797 Y101.747 E0.18958
G1 X128.089 Y101.897 E0.01033
G1 X128.691 Y102.304 E0.02291
G1 X128.998 Y102.555 E0.01250
G1 X129.516 Y103.066 E0.02291
G1 X129.968 Y103.635 E0.02291
G1 X130.186 Y103.967 E0.01250
G1 X130.376 Y104.327 E0.01283
G1 X134.680 Y108.630 E0.19180
G1 X134.680 Y109.166 E0.01689
G1 X130.777 Y105.263 E0.17394
G1 X130.894 Y105.670 E0.01333
G1 X130.950 Y105.972 E0.00969
G1 X134.680 Y109.702 E0.16623
G1 X134.680 Y110.238 E0.01689
G1 X131.045 Y106.603 E0.16199
G1 X131.060 Y107.154 E0.01737
G1 X134.680 Y110.774 E0.16132
G1 X134.680 Y111.310 E0.01689
G1 X131.043 Y107.673 E0.16211
G1 X130.981 Y108.148 E0.01508
G1 X134.680 Y111.846 E0.16484
G1 X134.680 Y112.382 E0.01689
G1 X130.882 Y108.584 E0.16928
G1 X130.769 Y109.007 E0.01379
G1 X134.680 Y112.918 E0.17432
G1 X134.680 Y113.454 E0.01689
G1 X130.620 Y109.394 E0.18094
G1 X130.458 Y109.768 E0.01284
G1 X134.680 Y113.990 E0.18818
G1 X134.680 Y114.526 E0.01689
G1 X130.272 Y110.118 E0.19646
G1 X130.072 Y110.454 E0.01232
G1 X134.680 Y115.062 E0.20537
G1 X134.680 Y115.598 E0.01689
G1 X129.847 Y110.765 E0.21539
G1 X129.610 Y111.064 E0.01202
G1 X134.680 Y116.134 E0.22596
G1 X134.680 Y116.670 E0.01689
G1 X129.357 Y111.347 E0.23723
G1 X129.081 Y111.606 E0.01195
G1 X134.278 Y116.804 E0.23163
G1 X133.742 Y116.804 E0.01689
G1 X128.794 Y111.856 E0.22051
M73 P4 R21
G1 X128.485 Y112.083 E0.01208
G1 X133.206 Y116.804 E0.21040
G1 X132.670 Y116.804 E0.01689
G1 X128.165 Y112.299 E0.20076
G1 X127.825 Y112.495 E0.01237
G1 X132.134 Y116.804 E0.19204
G1 X131.598 Y116.804 E0.01689
G1 X127.458 Y112.663 E0.18452
G1 X127.084 Y112.825 E0.01285
G1 X131.062 Y116.804 E0.17731
G1 X130.526 Y116.804 E0.01689
G1 X126.678 Y112.955 E0.17151
G1 X126.243 Y113.057 E0.01407
G1 X129.990 Y116.804 E0.16700
G1 X129.454 Y116.804 E0.01689
G1 X125.785 Y113.135 E0.16353
G1 X125.301 Y113.186 E0.01534
G1 X128.918 Y116.804 E0.16121
G1 X128.382 Y116.804 E0.01689
G1 X124.760 Y113.181 E0.16145
G1 X124.181 Y113.138 E0.01829
G1 X127.846 Y116.804 E0.16336
G1 X127.310 Y116.804 E0.01689
G1 X123.513 Y113.006 E0.16924
G1 X123.054 Y112.874 E0.01505
G1 X122.703 Y112.732 E0.01193
G1 X126.944 Y116.974 E0.18902
;WIPE_START
G1 F8640.000
G1 X124.617 Y114.646 E-0.76000
;WIPE_END
G1 E-0.04000 F2100.000
G1 Z0.600 F10800.000
G1 X127.142 Y101.628
G1 Z0.200
G1 E0.80000 F2100.000
G1 F1200.000
G1 X123.007 Y97.494 E0.18427
G1 X122.471 Y97.494 E0.01689
G1 X126.142 Y101.164 E0.16359
M73 P4 R20
G1 X125.527 Y101.085 E0.01955
G1 X121.935 Y97.494 E0.16006
G1 X121.399 Y97.494 E0.01689
G1 X124.969 Y101.063 E0.15907
G1 X124.451 Y101.081 E0.01632
G1 X120.864 Y97.494 E0.15989
G1 X120.328 Y97.494 E0.01689
G1 X123.981 Y101.147 E0.16282
G1 X123.535 Y101.237 E0.01435
G1 X119.792 Y97.494 E0.16682
G1 X119.256 Y97.494 E0.01689
G1 X123.116 Y101.354 E0.17204
G1 X122.730 Y101.504 E0.01304
G1 X118.720 Y97.494 E0.17875
G1 X118.184 Y97.494 E0.01689
G1 X122.353 Y101.663 E0.18580
G1 X122.003 Y101.849 E0.01249
G1 X117.648 Y97.494 E0.19409
G1 X117.112 Y97.494 E0.01689
G1 X121.674 Y102.056 E0.20335
G1 X121.356 Y102.274 E0.01215
G1 X116.576 Y97.494 E0.21306
G1 X116.040 Y97.494 E0.01689
G1 X121.061 Y102.515 E0.22380
G1 X120.777 Y102.767 E0.01196
G1 X115.629 Y97.618 E0.22946
G1 X115.629 Y98.154 E0.01689
G1 X120.515 Y103.041 E0.21779
G1 X120.270 Y103.332 E0.01199
G1 X115.629 Y98.690 E0.20685
G1 X115.629 Y99.226 E0.01689
G1 X120.036 Y103.634 E0.19644
G1 X119.827 Y103.961 E0.01223
G1 X115.629 Y99.762 E0.18712
G1 X115.629 Y100.298 E0.01689
G1 X119.633 Y104.302 E0.17844
G1 X119.459 Y104.665 E0.01267
G1 X115.629 Y100.834 E0.17072
G1 X115.629 Y101.370 E0.01689
G1 X119.301 Y105.042 E0.16365
G1 X119.167 Y105.445 E0.01337
G1 X115.629 Y101.906 E0.15771
G1 X115.629 Y102.442 E0.01689
G1 X119.068 Y105.882 E0.15329
G1 X118.986 Y106.336 E0.01454
G1 X115.629 Y102.978 E0.14965
G1 X115.629 Y103.514 E0.01689
G1 X118.941 Y106.826 E0.14762
M73 P5 R20
G1 X118.936 Y107.357 E0.01673
G1 X115.628 Y104.050 E0.14739
G1 X115.628 Y104.586 E0.01689
G1 X118.989 Y107.947 E0.14977
G1 X119.069 Y108.421 E0.01518
G1 X119.125 Y108.618 E0.00645
G1 X115.628 Y105.122 E0.15582
G1 X115.628 Y105.658 E0.01689
G1 X119.734 Y109.763 E0.18295
;WIPE_START
G1 F8640.000
G1 X117.406 Y107.436 E-0.76000
;WIPE_END
G1 E-0.04000 F2100.000
G1 Z0.600 F10800.000
G1 X115.459 Y106.024
G1 Z0.200
G1 E0.80000 F2100.000
G1 F1200.000
G1 X126.238 Y116.804 E0.48041
G1 X125.702 Y116.804 E0.01689
G1 X115.628 Y106.730 E0.44897
G1 X115.628 Y107.266 E0.01689
G1 X125.167 Y116.804 E0.42508
G1 X124.631 Y116.804 E0.01689
G1 X115.628 Y107.802 E0.40119
G1 X115.628 Y108.338 E0.01689
G1 X124.095 Y116.804 E0.37731
G1 X123.559 Y116.804 E0.01689
G1 X115.628 Y108.874 E0.35342
G1 X115.628 Y109.410 E0.01689
G1 X123.023 Y116.804 E0.32954
G1 X122.487 Y116.804 E0.01689
G1 X115.628 Y109.945 E0.30565
G1 X115.628 Y110.481 E0.01689
G1 X121.951 Y116.804 E0.28177
G1 X121.415 Y116.804 E0.01689
G1 X115.628 Y111.017 E0.25788
G1 X115.628 Y111.553 E0.01689
G1 X120.879 Y116.804 E0.23399
G1 X120.343 Y116.804 E0.01689
G1 X115.628 Y112.089 E0.21011
G1 X115.628 Y112.625 E0.01689
G1 X119.807 Y116.804 E0.18622
G1 X119.271 Y116.804 E0.01689
G1 X115.628 Y113.161 E0.16234
G1 X115.628 Y113.697 E0.01689
G1 X118.735 Y116.804 E0.13845
G1 X118.199 Y116.804 E0.01689
G1 X115.628 Y114.233 E0.11457
G1 X115.628 Y114.769 E0.01689
G1 X117.663 Y116.804 E0.09068
G1 X117.127 Y116.804 E0.01689
G1 X115.628 Y115.305 E0.06680
G1 X115.628 Y115.841 E0.01689
G1 X116.591 Y116.804 E0.04291
G1 X116.055 Y116.804 E0.01689
G1 X115.458 Y116.207 E0.02659
; stop printing object Body131.stl id:0 copy 0
M106 S84.15
;LAYER_CHANGE
;Z:0.4
;HEIGHT:0.2
;BEFORE_LAYER_CHANGE
G92 E0.0
;0.4


;WIPE_START
G1 F8640.000
G1 X116.055 Y116.804 E-0.19480
G1 X116.591 Y116.804 E-0.12376
G1 X115.628 Y115.841 E-0.31441
G1 X115.628 Y115.305 E-0.12375
G1 X115.638 Y115.315 E-0.00328
;WIPE_END
G1 E-0.04000 F2100.000
G1 Z0.600 F10800.000
;AFTER_LAYER_CHANGE
